X:1
T:Tours, 76.76 D
T:Tours, 76.76 D
T:Berthold Tours, 1872
T:Public Domain Courtesy of the Cyber Hymnal™
C:Berthold Tours, 1872
Z:Public Domain
Z:Courtesy of the Cyber Hymnal™
%%score ( 1 2 ) ( 3 4 )
L:1/8
Q:1/4=110
M:4/4
K:Eb
V:1 treble 
V:2 treble 
V:3 bass 
V:4 bass 
V:1
 (GA) | [FB]2 [Ee]2 [Ed]2 [Ec]2 | [EB]4 [EG]2 (EF) | [DG]2 (EF) [EG]2 [DF]2 | E6 (G=A) | %5
 [FB]2 [^Fe]2 [Gd]2 [Dc]2 | [DB]4 [DG]2 (G=A) | [FB]2 (G=A) [DB]2 [DA]2 | [DG]6 [DB]2 | %9
 [AB]2 [GB]2 [Gc]2 [_Ge]2 | [Fd]4 [FB]2 (Bc) | [Dd]2 (Bc) [Fd]2 [Ec]2 | [DB]6 [DB]2 | %13
 [Ee]2 B2 [CB]2 A2 | [=B,G]4 [CE]2 (EF) | [B,G]2 (EF) [B,G]2 [B,F]2 | [B,E]6 |] %17
V:2
 G2 | x8 | x6 E2 | x2 E2 x4 | E6 E2 | x8 | x6 G2 | x2 E2 x4 | x8 | x8 | x6 E2 | x2 G2 x4 | x8 | %13
 x2 (ED) x (DC) x | x6 C2 | x2 =A,2 x4 | x6 |] %17
V:3
 [E,E]2 | [E,D]2 [E,C]2 [A,,B,]2 A,2 | [E,G,]4 E,2 [C,G,]2 | [=B,,G,]2 (G,A,) [_B,,_B,]2 [B,,A,]2 | %4
 [E,G,]6 [E,B,]2 | [D,B,]2 [C,=A,]2 [B,,D]2 [=A,,^F,]2 | [G,,G,]4 [G,B,]2 [E,E]2 | %7
 [B,,D]2 [C,C]2 [D,G,]2 (^F,C) | [G,B,]6 (B,C) | [F,D]2 E2 ([C,E][B,,D]) [=A,,C]2 | %10
 [B,,D]4 [B,D]2 [G,B,]2 | [F,B,]2 (DC) (B,G,) [F,=A,]2 | [B,,B,]6 [B,,A,]2 | %13
 [C,G,]2 [G,,E,]2 [A,,E,]2 (F,E,) | [G,,D,]4 [C,E,]2 [A,,E,]2 | [G,,E,]2 [F,,E,]2 [B,,E,]2 (D,A,) | %16
 [E,G,]6 |] %17
V:4
 x2 | x6 (C,D,) | x4 E,2 x2 | x2 C,2 x4 | x8 | x8 | x8 | x6 D,2 | x6 G,2 | x2 (E,D,) x4 | x8 | %11
 x2 =E,2 F,2 x2 | x8 | x6 F,,2 | x8 | x6 B,,2 | x6 |] %17

